client/public/img/game/weapons/flues.svg

<?xml version="1.0" encoding="UTF-8" standalone="no"?>
<svg
   width="110"
   height="110"
   viewBox="0 0 110 110"
   fill="none"
   version="1.1"
   id="svg47"
   sodipodi:docname="flues.svg"
   inkscape:version="1.1.2 (0a00cf5339, 2022-02-04)"
   xmlns:inkscape="http://www.inkscape.org/namespaces/inkscape"
   xmlns:sodipodi="http://sodipodi.sourceforge.net/DTD/sodipodi-0.dtd"
   xmlns="http://www.w3.org/2000/svg"
   xmlns:svg="http://www.w3.org/2000/svg">
  <sodipodi:namedview
     id="namedview49"
     pagecolor="#505050"
     bordercolor="#ffffff"
     borderopacity="1"
     inkscape:pageshadow="0"
     inkscape:pageopacity="0"
     inkscape:pagecheckerboard="1"
     showgrid="false"
     inkscape:zoom="7.8468468"
     inkscape:cx="55.43628"
     inkscape:cy="55.43628"
     inkscape:window-width="2560"
     inkscape:window-height="1372"
     inkscape:window-x="0"
     inkscape:window-y="0"
     inkscape:window-maximized="1"
     inkscape:current-layer="svg47" />
  <g
     clip-path="url(#clip0_771_231)"
     id="g40"
     transform="matrix(1.0114926,0,0,1.0114926,-0.60181014,0.95856971)">
    <path
       d="m 29.5049,68.1804 c 1.459,-1.2691 3.0603,-2.5492 4.8179,-3.831 -0.1015,0.2459 -0.2616,0.5167 -0.4716,0.8144 -0.2723,0.3859 -0.6521,0.8495 -1.1595,1.4057 -1.6468,1.8074 -2.1061,3.2989 -2.1452,4.3658 -0.0395,1.0759 0.3545,1.8103 0.5249,2.0709 0.1451,0.2219 0.1416,0.5115 0.0284,0.7328 -0.1167,0.228 -0.3832,0.4 -0.6841,0.3949 l 0.0192,9e-4 c -0.5104,-0.0179 -1.0106,-0.4178 -1.4897,-1.2016 -0.17,-0.2768 -0.2385,-0.6019 -0.2602,-0.9111 -0.0222,-0.3151 0.0014,-0.6581 0.0506,-1.0039 0.0984,-0.6915 0.3091,-1.4603 0.5386,-2.1649 0.0752,-0.2306 0.153,-0.4565 0.2307,-0.6729 z"
       fill="#3b3635"
       stroke="#363130"
       stroke-width="1.14999"
       stroke-miterlimit="3.99393"
       id="path2" />
    <path
       d="m 32.5554,65.6763 c 0.0137,0.0835 0.0285,0.1699 0.0444,0.2582 0.0625,0.3451 0.1439,0.7266 0.2473,1.0824 0.1009,0.3468 0.2336,0.7084 0.4127,0.9897 0.3008,0.4724 0.7994,1.0633 1.3393,1.5494 0.2713,0.2444 0.5652,0.4733 0.8619,0.6494 0.289,0.1715 0.6222,0.318 0.9644,0.3472 0.1331,0.0114 0.2635,0.013 0.3845,-0.0037 0.1128,-0.0155 0.2757,-0.0546 0.4192,-0.1721 0.1711,-0.1402 0.2514,-0.3397 0.2476,-0.5358 -0.0031,-0.1641 -0.0634,-0.2934 -0.1034,-0.3656 -0.0813,-0.1466 -0.5019,-0.5041 -0.6285,-0.5943 -0.0412,-0.0294 -0.0812,-0.0567 -0.122,-0.0847 -0.0845,-0.0577 -0.1728,-0.1181 -0.2838,-0.2046 -0.332,-0.2585 -0.7433,-0.6337 -1.0838,-1.1092 -0.3395,-0.4741 -0.5977,-1.0322 -0.6536,-1.6656 -0.0505,-0.5712 0.0599,-1.2431 0.481,-2.0162 -0.8795,0.6256 -1.7214,1.2511 -2.5272,1.8755 z"
       fill="#403b3a"
       stroke="#363130"
       stroke-width="1.14999"
       stroke-miterlimit="3.99393"
       id="path4" />
    <path
       d="m 41.6033,64.5191 c -0.504,-1.1342 -1.2579,-1.8334 -2.1606,-2.1539 -0.8703,-0.3089 -1.1872,-0.5149 -1.7351,-0.5934 l -1.7084,1.6243 c 0.5559,-0.1443 2.4388,0.4662 2.859,0.6154 0.3878,0.1376 0.8101,0.455 1.1488,1.217 0.6986,1.5723 0.3493,3.0397 -0.233,4.1824 -0.2908,0.5706 -0.8954,1.4682 -1.2886,1.8017 -0.3685,0.3125 -1.5493,1.002 -2.1912,1.4103 -1.2873,0.8188 -2.8675,1.806 -4.07,2.5002 -1.1292,0.6519 -1.9575,0.609 -2.3108,0.615 -0.2369,0.004 -1.1573,-0.3116 -1.5337,-0.4769 -0.7518,-0.3301 -1.7506,-0.7592 -2.7304,-1.1513 -1.2921,-0.517 -1.9748,-1.0214 -1.9748,-1.0214 l -0.6366,1.8592 c 0,0 1.3199,0.527 1.9624,0.7841 0.9549,0.3821 1.9343,0.8028 2.6771,1.1289 0.3709,0.1629 1.0422,0.4815 1.2663,0.5639 0.2146,0.0789 0.7636,0.233 1.1275,0.2269 0.7266,-0.0124 1.7162,-0.2591 3.0265,-1.0156 1.2371,-0.7142 2.844,-1.7185 4.134,-2.539 l 0.0406,-0.0257 c 0.6604,-0.42 1.9503,-1.2404 2.3357,-1.6387 0.3935,-0.4067 1.3601,-1.5174 1.7224,-2.2284 0.724,-1.4207 1.2596,-3.4647 0.2729,-5.685 z"
       fill="#433e3d"
       stroke="#363130"
       stroke-width="1.14999"
       stroke-miterlimit="3.99393"
       stroke-linecap="round"
       id="path6" />
    <path
       d="m 37.4548,45.2247 c 0,0 -9.031,6.5 -12.1034,9.9128 -0.1833,0.2067 -0.4182,0.3676 -0.6859,0.4717 -0.3055,0.1259 -0.7921,0.3312 -1.5166,0.6486 -1.5435,0.6894 -1.784,1.4083 -1.784,1.4083 0,0 -1.2429,1.2975 0.048,2.2668 1.2908,0.9693 4.3869,-3.844 4.3869,-3.844 l 13.129,-8.3112 z"
       fill="#403b3a"
       stroke="#363130"
       stroke-width="1.14999"
       stroke-miterlimit="3.99393"
       stroke-linecap="round"
       id="path8" />
    <path
       d="m 30.0886,53.3861 c 0,0 -2.7298,1.2987 -4.499,3.6061 -1.7692,2.3074 -17.62306,20.3109 -17.62306,20.3109 0,0 -9.08309,11.8251 -5.25833,22.2493 0,0 1.496,3.2466 6.45064,0.3857 4.95465,-2.8605 5.05045,-5.6643 5.05045,-5.6643 0,0 -0.5819,-15.7256 22.1904,-31.0921 L 30.5694,53.0833 Z"
       fill="#5c342b"
       id="path10" />
    <path
       d="m 20.4241,63.0631 c -1.8769,2.1642 -4.008,4.6053 -5.9702,6.8472 0.2571,-0.7434 0.9311,-2.7691 0.964,-3.6686 l 2.2338,-1.856 c 0,0 -0.3135,-1.6416 1.2449,-2.397 0.7153,-0.3441 1.2065,0.2928 1.5275,1.0744 z"
       fill="#524a48"
       stroke="#363130"
       stroke-width="1.14999"
       stroke-miterlimit="3.99393"
       stroke-linecap="round"
       id="path12" />
    <path
       d="m 10.8132,74.0695 c 0,0 -8.15358,8.8931 -8.42443,14.9749 0,0 11.38063,2.3301 13.87113,-3.4447 2.4904,-5.7747 9.1844,-13.3965 9.1844,-13.3965 l -6.8893,2.0865 2.5511,-7.3731 C 21.1439,66.8948 16.701,66.056 10.8132,74.0695 Z"
       fill="#5c3b2b"
       stroke="#452d21"
       stroke-width="1.14999"
       stroke-miterlimit="3.99393"
       stroke-linecap="round"
       id="path14" />
    <path
       d="m 30.0886,53.3861 c 0,0 -2.7298,1.2987 -4.499,3.6061 -1.7692,2.3074 -17.62306,20.3109 -17.62306,20.3109 0,0 -9.08309,11.8251 -5.25833,22.2493 0,0 1.496,3.2466 6.45064,0.3857 4.95465,-2.8605 5.05045,-5.6643 5.05045,-5.6643 0,0 -0.5819,-15.7256 22.1904,-31.0921 L 30.5694,53.0833 Z"
       stroke="#462720"
       stroke-width="2.29999"
       stroke-miterlimit="3.99393"
       stroke-linecap="round"
       id="path16" />
    <path
       d="m 37.2587,48.513 -6.6913,4.5692 5.8303,10.0984 c 0,0 24.5205,-15.0898 25.7048,-17.3621 L 59.4251,41.181 41.5579,52.3345 c 0,0 -1.3774,1.5012 -4.2992,-3.8215 z"
       fill="#5d5655"
       id="path18" />
    <path
       d="m 37.6922,60.4415 c 0.24,-0.1386 0.3222,-0.4455 0.1837,-0.6855 -0.1386,-0.24 -0.4455,-0.3222 -0.6855,-0.1837 -0.24,0.1386 -0.3222,0.4455 -0.1836,0.6855 0.1385,0.24 0.4454,0.3222 0.6854,0.1837 z"
       fill="#7e7472"
       id="path20" />
    <path
       d="m 41.4548,57.1352 c 0.3134,-0.1809 0.4207,-0.5815 0.2398,-0.8948 -0.1809,-0.3134 -0.5815,-0.4207 -0.8949,-0.2398 -0.3133,0.1809 -0.4206,0.5815 -0.2397,0.8949 0.1809,0.3133 0.5815,0.4206 0.8948,0.2397 z"
       fill="#7e7472"
       id="path22" />
    <path
       d="m 54.3216,44.9488 c -0.0927,0.0569 -0.1866,0.117 -0.2816,0.1804 0,0 2.0648,4.5839 -1.7695,7.8633 l -1.3602,0.9532 c 0.5199,-0.3001 0.9705,-0.6199 1.3602,-0.9532 l 8.4411,-5.9158 c 0,0 -1.7151,-4.6805 -6.032,-2.335 z"
       fill="#585150"
       id="path24" />
    <path
       d="m 52.2705,52.9925 c 3.8343,-3.2794 1.7695,-7.8633 1.7695,-7.8633 0.095,-0.0634 0.1889,-0.1235 0.2816,-0.1804 l 0.358,-0.2071 c 4.3169,-2.3455 6.032,2.335 6.032,2.335 z m 0,0 -1.3602,0.9532 m 1.3602,-0.9532 c -0.3897,0.3333 -0.8403,0.6531 -1.3602,0.9532 m 0,0 0.5161,-0.2979"
       stroke="#363130"
       stroke-width="1.14999"
       stroke-miterlimit="3.99393"
       stroke-linecap="round"
       id="path26" />
    <path
       d="m 37.1067,44.6202 c 0,0 -1.1656,1.6059 0.4612,4.4236 1.6268,2.8177 2.5242,4.2411 3.9934,3.292 1.4692,-0.9491 66.5957,-40.8698 66.5957,-40.8698 0,0 -0.175,-2.92438 -3.155,-5.46522 z"
       fill="#514b49"
       stroke="#363130"
       stroke-width="1.14999"
       stroke-miterlimit="3.99393"
       stroke-linecap="round"
       id="path28" />
    <path
       d="m 37.1067,44.6201 4.4547,7.7158 c -1.4692,0.949 -2.3667,-0.4744 -3.9936,-3.2922 -1.6267,-2.8176 -0.4611,-4.4236 -0.4611,-4.4236 z"
       fill="#484342"
       stroke="#363130"
       stroke-width="1.14999"
       id="path30" />
    <path
       d="m 36.7444,48.8118 c -1.1799,-2.1495 0.3612,-4.1923 0.3612,-4.1923 L 105.001,6.00012 c 2.98,2.54085 3.155,5.46528 3.155,5.46528 0,0 -28.9255,17.7305 -48.6572,29.8398 l 2.6061,4.5137 C 60.9205,48.0912 36.4001,63.1811 36.4001,63.1811 L 30.5698,53.0827 Z"
       stroke="#363130"
       stroke-width="2.29999"
       stroke-miterlimit="3.99393"
       stroke-linecap="round"
       id="path32" />
    <path
       d="m 59.7797,41.7912 2.3256,4.028 c 0,0 38.4387,-25.5714 41.2447,-29.1835 0,0 2.09,-2.1897 -1.2,-0.7693 L 59.1465,40.6943 Z"
       fill="#5c342b"
       id="path34" />
    <path
       d="M 69.5624,40.6559 65.8418,39.627 96.7996,21.9299 Z"
       fill="#5c3b2b"
       stroke="#362219"
       stroke-width="1.14999"
       stroke-miterlimit="3.99393"
       stroke-linecap="round"
       id="path36" />
    <path
       d="m 59.7797,41.7912 2.3256,4.028 c 0,0 38.4387,-25.5714 41.2447,-29.1835 0,0 2.09,-2.1897 -1.2,-0.7693 L 59.1465,40.6943 Z"
       stroke="#462720"
       stroke-width="2.29999"
       stroke-miterlimit="3.99393"
       stroke-linecap="round"
       id="path38" />
  </g>
  <defs
     id="defs45">
    <clipPath
       id="clip0_771_231">
      <rect
         width="110"
         height="110"
         fill="#ffffff"
         transform="translate(0.199219,0.77832)"
         id="rect42"
         x="0"
         y="0" />
    </clipPath>
  </defs>
</svg>

<svg width="111" height="111" viewBox="0 0 111 111" fill="none" xmlns="http://www.w3.org/2000/svg">
<g clip-path="url(#clip0_771_231)">
<path d="M29.5049 68.1804C30.9639 66.9113 32.5652 65.6312 34.3228 64.3494C34.2213 64.5953 34.0612 64.8661 33.8512 65.1638C33.5789 65.5497 33.1991 66.0133 32.6917 66.5695C31.0449 68.3769 30.5856 69.8684 30.5465 70.9353C30.507 72.0112 30.901 72.7456 31.0714 73.0062C31.2165 73.2281 31.213 73.5177 31.0998 73.739C30.9831 73.967 30.7166 74.139 30.4157 74.1339L30.4349 74.1348C29.9245 74.1169 29.4243 73.717 28.9452 72.9332C28.7752 72.6564 28.7067 72.3313 28.685 72.0221C28.6628 71.707 28.6864 71.364 28.7356 71.0182C28.834 70.3267 29.0447 69.5579 29.2742 68.8533C29.3494 68.6227 29.4272 68.3968 29.5049 68.1804Z" fill="#3B3635" stroke="#363130" stroke-width="1.14999" stroke-miterlimit="3.99393"/>
<path d="M32.5554 65.6763C32.5691 65.7598 32.5839 65.8462 32.5998 65.9345C32.6623 66.2796 32.7437 66.6611 32.8471 67.0169C32.948 67.3637 33.0807 67.7253 33.2598 68.0066C33.5606 68.479 34.0592 69.0699 34.5991 69.556C34.8704 69.8004 35.1643 70.0293 35.461 70.2054C35.75 70.3769 36.0832 70.5234 36.4254 70.5526C36.5585 70.564 36.6889 70.5656 36.8099 70.5489C36.9227 70.5334 37.0856 70.4943 37.2291 70.3768C37.4002 70.2366 37.4805 70.0371 37.4767 69.841C37.4736 69.6769 37.4133 69.5476 37.3733 69.4754C37.292 69.3288 36.8714 68.9713 36.7448 68.8811C36.7036 68.8517 36.6636 68.8244 36.6228 68.7964C36.5383 68.7387 36.45 68.6783 36.339 68.5918C36.007 68.3333 35.5957 67.9581 35.2552 67.4826C34.9157 67.0085 34.6575 66.4504 34.6016 65.817C34.5511 65.2458 34.6615 64.5739 35.0826 63.8008C34.2031 64.4264 33.3612 65.0519 32.5554 65.6763Z" fill="#403B3A" stroke="#363130" stroke-width="1.14999" stroke-miterlimit="3.99393"/>
<path d="M41.6033 64.5191C41.0993 63.3849 40.3454 62.6857 39.4427 62.3652C38.5724 62.0563 38.2555 61.8503 37.7076 61.7718L35.9992 63.3961C36.5551 63.2518 38.438 63.8623 38.8582 64.0115C39.246 64.1491 39.6683 64.4665 40.007 65.2285C40.7056 66.8008 40.3563 68.2682 39.774 69.4109C39.4832 69.9815 38.8786 70.8791 38.4854 71.2126C38.1169 71.5251 36.9361 72.2146 36.2942 72.6229C35.0069 73.4417 33.4267 74.4289 32.2242 75.1231C31.095 75.775 30.2667 75.7321 29.9134 75.7381C29.6765 75.7421 28.7561 75.4265 28.3797 75.2612C27.6279 74.9311 26.6291 74.502 25.6493 74.1099C24.3572 73.5929 23.6745 73.0885 23.6745 73.0885L23.0379 74.9477C23.0379 74.9477 24.3578 75.4747 25.0003 75.7318C25.9552 76.1139 26.9346 76.5346 27.6774 76.8607C28.0483 77.0236 28.7196 77.3422 28.9437 77.4246C29.1583 77.5035 29.7073 77.6576 30.0712 77.6515C30.7978 77.6391 31.7874 77.3924 33.0977 76.6359C34.3348 75.9217 35.9417 74.9174 37.2317 74.0969L37.2723 74.0712C37.9327 73.6512 39.2226 72.8308 39.608 72.4325C40.0015 72.0258 40.9681 70.9151 41.3304 70.2041C42.0544 68.7834 42.59 66.7394 41.6033 64.5191Z" fill="#433E3D" stroke="#363130" stroke-width="1.14999" stroke-miterlimit="3.99393" stroke-linecap="round"/>
<path d="M37.4548 45.2247C37.4548 45.2247 28.4238 51.7247 25.3514 55.1375C25.1681 55.3442 24.9332 55.5051 24.6655 55.6092C24.36 55.7351 23.8734 55.9404 23.1489 56.2578C21.6054 56.9472 21.3649 57.6661 21.3649 57.6661C21.3649 57.6661 20.122 58.9636 21.4129 59.9329C22.7037 60.9022 25.7998 56.0889 25.7998 56.0889L38.9288 47.7777L37.4548 45.2247Z" fill="#403B3A" stroke="#363130" stroke-width="1.14999" stroke-miterlimit="3.99393" stroke-linecap="round"/>
<path d="M30.0886 53.3861C30.0886 53.3861 27.3588 54.6848 25.5896 56.9922C23.8204 59.2996 7.96654 77.3031 7.96654 77.3031C7.96654 77.3031 -1.11655 89.1282 2.70821 99.5524C2.70821 99.5524 4.20421 102.799 9.15885 99.9381C14.1135 97.0776 14.2093 94.2738 14.2093 94.2738C14.2093 94.2738 13.6274 78.5482 36.3997 63.1817L30.5694 53.0833L30.0886 53.3861Z" fill="#5C342B"/>
<path d="M20.4241 63.0631C18.5472 65.2273 16.4161 67.6684 14.4539 69.9103C14.711 69.1669 15.385 67.1412 15.4179 66.2417L17.6517 64.3857C17.6517 64.3857 17.3382 62.7441 18.8966 61.9887C19.6119 61.6446 20.1031 62.2815 20.4241 63.0631Z" fill="#524A48" stroke="#363130" stroke-width="1.14999" stroke-miterlimit="3.99393" stroke-linecap="round"/>
<path d="M10.8132 74.0695C10.8132 74.0695 2.65962 82.9626 2.38877 89.0444C2.38877 89.0444 13.7694 91.3745 16.2599 85.5997C18.7503 79.825 25.4443 72.2032 25.4443 72.2032L18.555 74.2897L21.1061 66.9166C21.1439 66.8948 16.701 66.056 10.8132 74.0695Z" fill="#5C3B2B" stroke="#452D21" stroke-width="1.14999" stroke-miterlimit="3.99393" stroke-linecap="round"/>
<path d="M30.0886 53.3861C30.0886 53.3861 27.3588 54.6848 25.5896 56.9922C23.8204 59.2996 7.96654 77.3031 7.96654 77.3031C7.96654 77.3031 -1.11655 89.1282 2.70821 99.5524C2.70821 99.5524 4.20421 102.799 9.15885 99.9381C14.1135 97.0776 14.2093 94.2738 14.2093 94.2738C14.2093 94.2738 13.6274 78.5482 36.3997 63.1817L30.5694 53.0833L30.0886 53.3861Z" stroke="#462720" stroke-width="2.29999" stroke-miterlimit="3.99393" stroke-linecap="round"/>
<path d="M37.2587 48.513L30.5674 53.0822L36.3977 63.1806C36.3977 63.1806 60.9182 48.0908 62.1025 45.8185L59.4251 41.181L41.5579 52.3345C41.5579 52.3345 40.1805 53.8357 37.2587 48.513Z" fill="#5D5655"/>
<path d="M37.6922 60.4415C37.9322 60.3029 38.0144 59.996 37.8759 59.756C37.7373 59.516 37.4304 59.4338 37.1904 59.5723C36.9504 59.7109 36.8682 60.0178 37.0068 60.2578C37.1453 60.4978 37.4522 60.58 37.6922 60.4415Z" fill="#7E7472"/>
<path d="M41.4548 57.1352C41.7682 56.9543 41.8755 56.5537 41.6946 56.2404C41.5137 55.927 41.1131 55.8197 40.7997 56.0006C40.4864 56.1815 40.3791 56.5821 40.56 56.8955C40.7409 57.2088 41.1415 57.3161 41.4548 57.1352Z" fill="#7E7472"/>
<path d="M54.3216 44.9488C54.2289 45.0057 54.135 45.0658 54.04 45.1292C54.04 45.1292 56.1048 49.7131 52.2705 52.9925L50.9103 53.9457C51.4302 53.6456 51.8808 53.3258 52.2705 52.9925L60.7116 47.0767C60.7116 47.0767 58.9965 42.3962 54.6796 44.7417L54.3216 44.9488Z" fill="#585150"/>
<path d="M52.2705 52.9925C56.1048 49.7131 54.04 45.1292 54.04 45.1292C54.135 45.0658 54.2289 45.0057 54.3216 44.9488L54.6796 44.7417C58.9965 42.3962 60.7116 47.0767 60.7116 47.0767L52.2705 52.9925ZM52.2705 52.9925L50.9103 53.9457M52.2705 52.9925C51.8808 53.3258 51.4302 53.6456 50.9103 53.9457M50.9103 53.9457L51.4264 53.6478" stroke="#363130" stroke-width="1.14999" stroke-miterlimit="3.99393" stroke-linecap="round"/>
<path d="M37.1067 44.6202C37.1067 44.6202 35.9411 46.2261 37.5679 49.0438C39.1947 51.8615 40.0921 53.2849 41.5613 52.3358C43.0305 51.3867 108.157 11.466 108.157 11.466C108.157 11.466 107.982 8.54162 105.002 6.00078L37.1067 44.6202Z" fill="#514B49" stroke="#363130" stroke-width="1.14999" stroke-miterlimit="3.99393" stroke-linecap="round"/>
<path d="M37.1067 44.6201L41.5614 52.3359C40.0922 53.2849 39.1947 51.8615 37.5678 49.0437C35.9411 46.2261 37.1067 44.6201 37.1067 44.6201Z" fill="#484342" stroke="#363130" stroke-width="1.14999"/>
<path d="M36.7444 48.8118C35.5645 46.6623 37.1056 44.6195 37.1056 44.6195L105.001 6.00012C107.981 8.54097 108.156 11.4654 108.156 11.4654C108.156 11.4654 79.2305 29.1959 59.4988 41.3052L62.1049 45.8189C60.9205 48.0912 36.4001 63.1811 36.4001 63.1811L30.5698 53.0827L36.7444 48.8118Z" stroke="#363130" stroke-width="2.29999" stroke-miterlimit="3.99393" stroke-linecap="round"/>
<path d="M59.7797 41.7912L62.1053 45.8192C62.1053 45.8192 100.544 20.2478 103.35 16.6357C103.35 16.6357 105.44 14.446 102.15 15.8664L59.1465 40.6943L59.7797 41.7912Z" fill="#5C342B"/>
<path d="M69.5624 40.6559L65.8418 39.627L96.7996 21.9299L69.5624 40.6559Z" fill="#5C3B2B" stroke="#362219" stroke-width="1.14999" stroke-miterlimit="3.99393" stroke-linecap="round"/>
<path d="M59.7797 41.7912L62.1053 45.8192C62.1053 45.8192 100.544 20.2478 103.35 16.6357C103.35 16.6357 105.44 14.446 102.15 15.8664L59.1465 40.6943L59.7797 41.7912Z" stroke="#462720" stroke-width="2.29999" stroke-miterlimit="3.99393" stroke-linecap="round"/>
</g>
<defs>
<clipPath id="clip0_771_231">
<rect width="110" height="110" fill="white" transform="translate(0.199219 0.77832)"/>
</clipPath>
</defs>
</svg>
